X: 25
T:Isle of Skye
M:4/4
L:1/8
K:D
dB|"D"A2 D2 GFED|"D"A2 D2 GFED|"Em"B2E2 EFGA|"G"B2E2 "A"EFGA|
"D"BAGF "Bm"d2cB|!"G"BAGF "A"E2 DE|"D"FEDB, A,B,DE|
"D"F2D2D2:||ag|"D"f2d2 fgag|!"D"f2d2 fgaf|"Em"g2 e2 efga|
"Em"b2 e2 e2 ag|"D"f2d2 fgag|"D"f2d2 fgag|!"Bm"fgab "A"afeg|
"D"f2 d2 d2 de|"D"f2 dF "A"e2ce|"Bm"d2 Ad B2 FA|!"Em"BEdE EFGA|
"Em"BEdE "A" Ecde|"Bm"f2 df "A"e2ce|"G"d2 Bd B2 FB|
"A"A2 A,2 A,B,DE|"D"F2 D2 D2||
